svg/hand_left.svg

<svg xmlns="http://www.w3.org/2000/svg" viewBox="0 0 24 24"><path d="M3 6.58v12.09C3 20.5 4.5 22 6.33 22h6.09c.9 0 1.75-.36 2.37-1l6.54-6.64s-1.05-1.03-1.08-1.04a.985.985 0 0 0-1.16-.11c-.03.01-3.59 2.05-3.59 2.05V5.33a1.25 1.25 0 0 0-1.25-1.25A1.25 1.25 0 0 0 13 5.33v5.84h-.83V3.25A1.25 1.25 0 0 0 10.92 2a1.25 1.25 0 0 0-1.25 1.25v7.92h-.84V4.08a1.25 1.25 0 0 0-1.25-1.25 1.25 1.25 0 0 0-1.25 1.25v7.09H5.5V6.58a1.25 1.25 0 0 0-1.25-1.25A1.25 1.25 0 0 0 3 6.58"/></svg>

<?xml version="1.0" encoding="UTF-8"?><!DOCTYPE svg PUBLIC "-//W3C//DTD SVG 1.1//EN" "http://www.w3.org/Graphics/SVG/1.1/DTD/svg11.dtd"><svg xmlns="http://www.w3.org/2000/svg" xmlns:xlink="http://www.w3.org/1999/xlink" version="1.1" id="mdi-hand-left" width="24" height="24" viewBox="0 0 24 24"><path d="M3,6.58V18.67C3,20.5 4.5,22 6.33,22H12.42C13.32,22 14.17,21.64 14.79,21L21.33,14.36C21.33,14.36 20.28,13.33 20.25,13.32C20.07,13.16 19.84,13.07 19.59,13.07C19.41,13.07 19.24,13.12 19.09,13.21C19.06,13.22 15.5,15.26 15.5,15.26V5.33A1.25,1.25 0 0,0 14.25,4.08A1.25,1.25 0 0,0 13,5.33V11.17H12.17V3.25A1.25,1.25 0 0,0 10.92,2A1.25,1.25 0 0,0 9.67,3.25V11.17H8.83V4.08A1.25,1.25 0 0,0 7.58,2.83A1.25,1.25 0 0,0 6.33,4.08V11.17H5.5V6.58A1.25,1.25 0 0,0 4.25,5.33A1.25,1.25 0 0,0 3,6.58Z" /></svg>
